X:1
T:[ID 1-71]
T:[ID 1-71]
T:Bezeichnung standardisiert: Menuett Men\"uet
T:Urheber unbekannt Datum in der hier transkribierten schriftlichen Quelle: vermutlich vor 1767
C:Urheber unbekannt
C:Datum in der hier transkribierten schriftlichen Quelle: vermutlich vor 1767
L:1/8
M:3/4
K:D
V:1 treble 
V:1
 ab a2 d'2 | d4 d2 | efedcB | A4 A2 | dAeAfA | e2 f2 g2 | a2 bagf | e6 :: edcdec | A2 e4 | BcdcBA | %11
 ^GABG E2 | AEBEcE | B2 c2 d2 | cBcAB^G | A6 | AGFEDC | B,2 G,4 | BAGFED | BAGFED | C2 A,4 | %21
 ab a2 d'2 | d4 d2 | egfedc | d6 :| %25

